src/pos-icons/shield-search.svg

<svg height="24" viewBox="0 0 24 24" width="24" xmlns="http://www.w3.org/2000/svg"><path d="m12 9a3 3 0 0 1 3 3 3 3 0 0 1 -3 3 3 3 0 0 1 -3-3 3 3 0 0 1 3-3m5.86 10.31c-1.63 1.91-3.58 3.14-5.86 3.69-2.56-.61-4.7-2.07-6.42-4.37-1.72-2.29-2.58-4.83-2.58-7.63v-6l9-4 9 4v6c0 2.39-.64 4.61-1.92 6.67l-2.91-2.91c.52-.79.83-1.76.83-2.76a5 5 0 0 0 -5-5 5 5 0 0 0 -5 5 5 5 0 0 0 5 5c1 0 1.97-.31 2.76-.83z"/></svg>

<?xml version="1.0" encoding="UTF-8"?><!DOCTYPE svg PUBLIC "-//W3C//DTD SVG 1.1//EN" "http://www.w3.org/Graphics/SVG/1.1/DTD/svg11.dtd"><svg xmlns="http://www.w3.org/2000/svg" xmlns:xlink="http://www.w3.org/1999/xlink" version="1.1" id="mdi-shield-search" width="24" height="24" viewBox="0 0 24 24"><path d="M12,9A3,3 0 0,1 15,12A3,3 0 0,1 12,15A3,3 0 0,1 9,12A3,3 0 0,1 12,9M17.86,19.31C16.23,21.22 14.28,22.45 12,23C9.44,22.39 7.3,20.93 5.58,18.63C3.86,16.34 3,13.8 3,11V5L12,1L21,5V11C21,13.39 20.36,15.61 19.08,17.67L16.17,14.76C16.69,13.97 17,13 17,12A5,5 0 0,0 12,7A5,5 0 0,0 7,12A5,5 0 0,0 12,17C13,17 13.97,16.69 14.76,16.17L17.86,19.31Z" /></svg>
